demo/img/redNumbers/3.svg

<?xml version="1.0" encoding="UTF-8"?>
<svg width="143px" height="163px" viewBox="0 0 143 163" version="1.1" xmlns="http://www.w3.org/2000/svg" xmlns:xlink="http://www.w3.org/1999/xlink">
    <!-- Generator: Sketch 52.6 (67491) - http://www.bohemiancoding.com/sketch -->
    <title>3</title>
    <desc>Created with Sketch.</desc>
    <g id="-" stroke="none" stroke-width="1" fill="none" fill-rule="evenodd" fill-opacity="0">
        <path d="M111.999,80.2745794 C121.525048,83.1612605 128.994223,87.4912172 134.40675,93.2645794 C139.819277,99.0379416 142.5255,106.326702 142.5255,115.131079 C142.5255,124.224125 139.963609,132.306711 134.83975,139.379079 C129.715891,146.451448 121.921969,152.044309 111.45775,156.157829 C100.993531,160.27135 88.0397439,162.328079 72.596,162.328079 C55.8532496,162.328079 42.177803,160.090935 31.56925,155.616579 C20.960697,151.142224 13.2389408,145.368948 8.40375,138.296579 C3.56855916,131.224211 0.86233622,123.502455 0.285,115.131079 L22.1515,115.131079 C24.0278427,124.657127 29.2237908,132.018053 37.7395,137.214079 C46.2552092,142.410105 58.0904242,145.008079 73.2455,145.008079 C83.2045498,145.008079 91.7562143,143.709092 98.90075,141.111079 C106.045286,138.513066 111.421649,135.085184 115.03,130.827329 C118.638351,126.569475 120.4425,121.914771 120.4425,116.863079 L120.4425,113.399079 C120.4425,106.038043 116.762037,100.30085 109.401,96.1873294 C102.039963,92.0738088 91.792399,90.0170794 78.658,90.0170794 L50.2965,90.0170794 L50.2965,72.9135794 L78.0085,72.9135794 C90.1325606,72.9135794 99.5502164,70.784684 106.26175,66.5268294 C112.973284,62.2689748 116.329,56.0987865 116.329,48.0160794 L116.329,44.5520794 C116.329,40.2220577 114.741349,36.0364329 111.566,31.9950794 C108.390651,27.9537259 103.483367,24.6340924 96.844,22.0360794 C90.2046335,19.4380664 82.0498817,18.1390794 72.3795,18.1390794 C58.5234307,18.1390794 47.662456,20.5205556 39.79625,25.2835794 C31.930044,30.0466032 26.625847,37.0466999 23.8835,46.2840794 L1.8005,46.2840794 C3.82117677,33.5826826 10.4965267,22.8299568 21.82675,14.0255794 C33.1569733,5.22120204 50.0077215,0.819079395 72.3795,0.819079395 C86.6685714,0.819079395 98.7924502,2.87580883 108.7515,6.9893294 C118.71055,11.10285 126.143642,16.5513788 131.051,23.3350794 C135.958358,30.11878 138.412,37.6240383 138.412,45.8510794 C138.412,63.3155001 129.607755,74.7898853 111.999,80.2745794 Z" id="3" stroke="#870000" stroke-width="0.3" fill="#171717"></path>
    </g>
</svg>

<?xml version="1.0" encoding="utf-8"?>
<!-- Generator: Adobe Illustrator 16.0.0, SVG Export Plug-In . SVG Version: 6.00 Build 0)  -->
<!DOCTYPE svg PUBLIC "-//W3C//DTD SVG 1.1//EN" "http://www.w3.org/Graphics/SVG/1.1/DTD/svg11.dtd">
<svg version="1.1" id="Capa_1" xmlns="http://www.w3.org/2000/svg" xmlns:xlink="http://www.w3.org/1999/xlink" x="0px" y="0px"
	 width="143px" height="163px" viewBox="0 0 143 163" enable-background="new 0 0 143 163" xml:space="preserve">
<title>3</title>
<desc>Created with Sketch.</desc>
<g id="_x2D_">
	<path id="_x33_" fill="none" stroke="#1E7498" stroke-width="0.3" d="M111.999,80.274c9.526,2.887,16.995,7.217,22.407,12.99
		c5.413,5.773,8.119,13.062,8.119,21.866c0,9.094-2.563,17.176-7.686,24.248c-5.124,7.072-12.918,12.666-23.383,16.779
		c-10.463,4.113-23.418,6.17-38.861,6.17c-16.743,0-30.418-2.237-41.026-6.711c-10.608-4.475-18.331-10.248-23.166-17.32
		c-4.835-7.072-7.542-14.795-8.119-23.166h21.866c1.876,9.526,7.072,16.887,15.588,22.083c8.516,5.196,20.351,7.794,35.507,7.794
		c9.959,0,18.51-1.299,25.654-3.896s12.521-6.026,16.129-10.284c3.609-4.258,5.413-8.913,5.413-13.964v-3.465
		c0-7.36-3.681-13.098-11.042-17.211c-7.36-4.113-17.607-6.17-30.742-6.17H50.296V72.914h27.711c12.125,0,21.543-2.129,28.254-6.387
		s10.067-10.428,10.067-18.511v-3.464c0-4.33-1.588-8.516-4.763-12.557c-3.176-4.042-8.083-7.361-14.723-9.959
		c-6.639-2.598-14.794-3.897-24.465-3.897c-13.855,0-24.716,2.381-32.583,7.145c-7.866,4.763-13.17,11.763-15.913,21H1.8
		c2.021-12.702,8.696-23.454,20.026-32.259C33.157,5.221,50.008,0.819,72.379,0.819c14.289,0,26.414,2.057,36.373,6.17
		c9.959,4.114,17.392,9.562,22.299,16.346c4.908,6.784,7.361,14.289,7.361,22.516C138.412,63.315,129.607,74.79,111.999,80.274z"/>
</g>
</svg>
